blog/src/icons/svg/nav-friendLink.svg

<?xml version="1.0" standalone="no"?><!DOCTYPE svg PUBLIC "-//W3C//DTD SVG 1.1//EN" "http://www.w3.org/Graphics/SVG/1.1/DTD/svg11.dtd"><svg t="1586004452003" class="icon" viewBox="0 0 1028 1024" version="1.1" xmlns="http://www.w3.org/2000/svg" p-id="1022" xmlns:xlink="http://www.w3.org/1999/xlink" width="200.78125" height="200"><defs><style type="text/css"></style></defs><path d="M277.942857 555.885714a277.942857 277.942857 0 1 1 277.942857-277.942857 277.942857 277.942857 0 0 1-277.942857 277.942857z m0-497.371428a219.428571 219.428571 0 1 0 219.428572 219.428571A219.428571 219.428571 0 0 0 277.942857 58.514286zM852.699429 596.114286a175.542857 175.542857 0 1 1 175.542857-175.542857 175.542857 175.542857 0 0 1-175.542857 175.542857z m0-292.571429a117.028571 117.028571 0 1 0 117.028571 117.028572 117.028571 117.028571 0 0 0-117.028571-117.028572zM365.714286 1024a175.542857 175.542857 0 1 1 175.542857-175.542857 175.542857 175.542857 0 0 1-175.542857 175.542857z m0-292.571429a117.028571 117.028571 0 1 0 117.028571 117.028572 117.028571 117.028571 0 0 0-117.028571-117.028572z" fill="" p-id="1023"></path><path d="M731.428571 351.085714H526.628571a29.257143 29.257143 0 0 1 0-58.514285h204.8a29.257143 29.257143 0 0 1 0 58.514285zM277.942857 746.057143a29.257143 29.257143 0 0 1-29.257143-29.257143V526.628571a29.257143 29.257143 0 0 1 58.514286 0v190.171429a29.257143 29.257143 0 0 1-29.257143 29.257143z" fill="" p-id="1024"></path></svg>

<svg class="icon" viewBox="0 0 1028 1024" xmlns="http://www.w3.org/2000/svg" width="200.781" height="200"><defs><style/></defs><path d="M277.943 555.886a277.943 277.943 0 1 1 277.943-277.943 277.943 277.943 0 0 1-277.943 277.943zm0-497.372A219.429 219.429 0 1 0 497.37 277.943 219.429 219.429 0 0 0 277.943 58.514zm574.756 537.6a175.543 175.543 0 1 1 175.543-175.543A175.543 175.543 0 0 1 852.7 596.114zm0-292.571A117.029 117.029 0 1 0 969.728 420.57a117.029 117.029 0 0 0-117.029-117.028zM365.714 1024a175.543 175.543 0 1 1 175.543-175.543A175.543 175.543 0 0 1 365.714 1024zm0-292.571a117.029 117.029 0 1 0 117.029 117.028A117.029 117.029 0 0 0 365.714 731.43z"/><path d="M731.429 351.086h-204.8a29.257 29.257 0 0 1 0-58.515h204.8a29.257 29.257 0 0 1 0 58.515zM277.943 746.057a29.257 29.257 0 0 1-29.257-29.257V526.629a29.257 29.257 0 0 1 58.514 0V716.8a29.257 29.257 0 0 1-29.257 29.257z"/></svg>
